X:409
T:Lady Charlotte Primrose
R:Strathspey
C:John Gow
B:The Athole Collection
M:C
L:1/8
K:D
f|d2 A>c d/c/B/A/ d>f|d2 A>c d<F E2|d2 A>c d/c/B/A/ d<f|B/c/d G>B A>F D:|
|:A|F>D D/D/D A>F d<f|F>D D/D/D A>FE>A|1 F>D D/D/D A>F d>f|
B/c/d G>B A>F D:|2 F>D D/D/D A>FA>d|f>de>c d>F D||

